wp-expand-tabs-free/admin/img/tabs-alignment/horizontal-top/horizontal-left.svg

<svg width="120" height="92" viewBox="0 0 120 92" fill="none" xmlns="http://www.w3.org/2000/svg">
<rect x="1" y="1" width="118" height="90" rx="3" fill="white"/>
<path d="M39 25V26H40H98C98.4997 26 98.7738 26.0021 98.964 26.0277C98.9665 26.028 98.9689 26.0284 98.9713 26.0287C98.9716 26.0311 98.972 26.0335 98.9723 26.036C98.9979 26.2262 99 26.5003 99 27V74C99 74.4997 98.9979 74.7738 98.9723 74.964C98.972 74.9665 98.9716 74.9689 98.9713 74.9713C98.9689 74.9716 98.9665 74.972 98.964 74.9723C98.7738 74.9979 98.4997 75 98 75H22C21.5003 75 21.2262 74.9979 21.036 74.9723C21.0335 74.972 21.0311 74.9716 21.0287 74.9713C21.0284 74.9689 21.028 74.9665 21.0277 74.964C21.0021 74.7738 21 74.4997 21 74V18C21 17.5003 21.0021 17.2262 21.0277 17.036C21.028 17.0335 21.0284 17.0311 21.0287 17.0287C21.0311 17.0284 21.0335 17.028 21.036 17.0277C21.2262 17.0021 21.5003 17 22 17H38C38.4997 17 38.7738 17.0021 38.964 17.0277C38.9665 17.028 38.9689 17.0284 38.9713 17.0287C38.9716 17.0311 38.972 17.0335 38.9723 17.036C38.9979 17.2262 39 17.5003 39 18V25Z" fill="white" stroke="#8796A1" stroke-width="2"/>
<path d="M44 18C44 17.0572 44 16.5858 44.2929 16.2929C44.5858 16 45.0572 16 46 16H61C61.9428 16 62.4142 16 62.7071 16.2929C63 16.5858 63 17.0572 63 18V25C63 25.9428 63 26.4142 62.7071 26.7071C62.4142 27 61.9428 27 61 27H46C45.0572 27 44.5858 27 44.2929 26.7071C44 26.4142 44 25.9428 44 25V18Z" fill="#8796A1"/>
<path d="M67 18C67 17.0572 67 16.5858 67.2929 16.2929C67.5858 16 68.0572 16 69 16H84C84.9428 16 85.4142 16 85.7071 16.2929C86 16.5858 86 17.0572 86 18V25C86 25.9428 86 26.4142 85.7071 26.7071C85.4142 27 84.9428 27 84 27H69C68.0572 27 67.5858 27 67.2929 26.7071C67 26.4142 67 25.9428 67 25V18Z" fill="#8796A1"/>
<rect x="1" y="1" width="118" height="90" rx="3" stroke="#CCCCCC" stroke-width="2"/>
</svg>

<svg xmlns="http://www.w3.org/2000/svg" width="120" height="92" fill="none"><g fill="#fff"><rect x="1" y="1" width="118" height="90" rx="3"/><path d="M39 25v1h1 58l.964.028c.034.198.036.473.036.972v47l-.028.964c-.199.034-.473.036-.972.036H22c-.5 0-.774-.002-.964-.028C21.002 74.774 21 74.5 21 74V18l.028-.964c.198-.034.473-.036.972-.036h16l.964.028c.034.198.036.473.036.972v7z" stroke="#8796a1" stroke-width="2"/></g><path d="M44 18c0-.943 0-1.414.293-1.707S45.057 16 46 16h15c.943 0 1.414 0 1.707.293S63 17.057 63 18v7c0 .943 0 1.414-.293 1.707S61.943 27 61 27H46c-.943 0-1.414 0-1.707-.293S44 25.943 44 25v-7zm23 0c0-.943 0-1.414.293-1.707S68.057 16 69 16h15c.943 0 1.414 0 1.707.293S86 17.057 86 18v7c0 .943 0 1.414-.293 1.707S84.943 27 84 27H69c-.943 0-1.414 0-1.707-.293S67 25.943 67 25v-7z" fill="#8796a1"/><rect x="1" y="1" width="118" height="90" rx="3" stroke="#ccc" stroke-width="2"/></svg>
